;FLAVOR:RepRap
;TIME:1617
;Filament used: 0.975556m
;Layer height: 0.1
;MINX:-14.093
;MINY:-49.163
;MINZ:0.36
;MAXX:9.989
;MAXY:44.078
;MAXZ:3.66
;Generated with Cura_SteamEngine 4.9.1
T0
M190 S60
M104 S200
M109 S200
M82 ;absolute extrusion mode
G28 ;Home
G1 Z15.0 F6000 ;Move the platform down 15mm
;Prime the extruder
G92 E0
G1 F200 E3
G92 E0
M83 ;relative extrusion mode
G1 F1500 E-6.5
;LAYER_COUNT:28
;LAYER:-9
M107
G0 F7200 X-.998 Y20.589 Z0.36
;TYPE:SUPPORT-INTERFACE
G1 F1500 E6.5
G1 F1350 X-.998 Y-46.818 E8.07108
G1 X-.921 Y-47.464 E0.0779
G1 X-.766 Y-47.893 E0.05462
G1 X-.453 Y-48.322 E0.06359
G1 X0.097 Y-48.736 E0.08243
G1 X0.416 Y-48.866 E0.04125
G1 X0.89 Y-48.952 E0.05768
G1 X1.135 Y-48.963 E0.02936
G1 X7.665 Y-48.962 E0.78188
G1 X8.218 Y-48.906 E0.06655
G1 X8.67 Y-48.747 E0.05737
G1 X9.248 Y-48.319 E0.08612
G1 X9.531 Y-47.93 E0.0576
G1 X9.708 Y-47.477 E0.05823
G1 X9.788 Y-46.818 E0.07949
G1 X9.789 Y41.695 E10.59824
G1 X9.738 Y42.235 E0.06495
G1 X9.582 Y42.694 E0.05805
G1 X9.348 Y43.044 E0.05041
G1 X9.01 Y43.399 E0.05869
G1 X8.73 Y43.582 E0.04005
G1 X8.301 Y43.746 E0.05499
G1 X7.645 Y43.824 E0.0791
G1 X1.126 Y43.825 E0.78056
G1 X0.68 Y43.797 E0.05351
G1 X0.015 Y43.783 E0.07964
G1 X-.747 Y43.86 E0.0917
G1 X-1.053 Y43.878 E0.0367
G1 X-11.783 Y43.877 E1.28477
G1 X-12.418 Y43.803 E0.07655
G1 X-12.944 Y43.588 E0.06804
G1 X-13.238 Y43.37 E0.04382
G1 X-13.623 Y42.91 E0.07182
G1 X-13.809 Y42.457 E0.05863
G1 X-13.887 Y41.988 E0.05693
G1 X-13.894 Y41.811 E0.02121
G1 X-13.894 Y28.05 E1.64769
G1 X-13.835 Y27.494 E0.06695
G1 X-13.654 Y27.006 E0.06232
G1 X-13.396 Y26.65 E0.05264
G1 X-12.994 Y26.292 E0.06445
G1 X-12.511 Y26.068 E0.06375
G1 X-12.037 Y25.983 E0.05766
G1 X-11.808 Y25.971 E0.02746
G1 X-6.385 Y25.971 E0.64933
G1 X-5.717 Y25.929 E0.08014
G1 X-5.046 Y25.8 E0.08181
G1 X-4.397 Y25.587 E0.08179
G1 X-3.78 Y25.295 E0.08173
G1 X-3.205 Y24.927 E0.08174
G1 X-2.681 Y24.489 E0.08177
G1 X-2.217 Y23.989 E0.08168
G1 X-1.818 Y23.433 E0.08194
G1 X-1.494 Y22.833 E0.08165
G1 X-1.248 Y22.197 E0.08165
G1 X-1.082 Y21.528 E0.08253
G1 X-.998 Y20.589 E0.11288
G0 F7200 X-1.6 Y23.029
G1 F1350 X-1.6 Y43.877 E2.49627
G0 F7200 X-3.2 Y43.877
G1 F1350 X-3.2 Y24.922 E2.26961
G0 F7200 X-4.8 Y25.719
G1 F1350 X-4.8 Y43.877 E2.17418
G0 F7200 X-6.4 Y43.877
G1 F1350 X-6.4 Y25.971 E2.144
G0 F7200 X-8 Y25.971
G1 F1350 X-8 Y43.877 E2.144
G0 F7200 X-9.6 Y43.877
G1 F1350 X-9.6 Y25.971 E2.144
G0 F7200 X-11.2 Y25.971
G1 F1350 X-11.2 Y43.877 E2.144
G0 F7200 X-12.8 Y43.646
G1 F1350 X-12.8 Y26.202 E2.08868
G0 F7200 X0.00 Y43.785
G1 F1350 X0.00 Y-48.663 E11.0694
G0 F7200 X1.6 Y-48.962
G1 F1350 X1.6 Y43.825 E11.10999
G0 F7200 X3.2 Y43.825
G1 F1350 X3.2 Y-48.962 E11.10999
G0 F7200 X4.8 Y-48.962
G1 F1350 X4.8 Y43.825 E11.10999
G0 F7200 X6.4 Y43.825
G1 F1350 X6.4 Y-48.962 E11.10999
G0 F7200 X8 Y-48.928
G1 F1350 X8 Y43.782 E11.10077
G0 F7200 X9.6 Y42.642
G1 F1350 X9.6 Y-47.753 E10.82358
G0 F600 X9.6 Y-47.753 Z0.51
G0 F7200 X9.787 Y-46.817
;TIME_ELAPSED:48.532023
;LAYER:-8
;TYPE:SUPPORT
G1 F1350 X9.772 Y-47.079 E0.01309
G1 X9.755 Y-47.212 E0.00669
G1 X9.707 Y-47.475 E0.01334
G1 X9.67 Y-47.608 E0.00689
G1 X9.63 Y-47.727 E0.00626
G1 X9.531 Y-47.929 E0.01122
G1 X9.495 Y-47.992 E0.00362
G1 X9.418 Y-48.112 E0.00711
G1 X9.342 Y-48.21 E0.00619
G1 X9.252 Y-48.314 E0.00686
G1 X9.007 Y-48.52 E0.01597
G1 X8.867 Y-48.622 E0.00864
G1 X8.669 Y-48.745 E0.01163
G1 X8.606 Y-48.776 E0.0035
G1 X8.527 Y-48.81 E0.00429
G1 X8.41 Y-48.854 E0.00624
G1 X8.303 Y-48.884 E0.00554
G1 X8.217 Y-48.904 E0.00441
G1 X8.113 Y-48.927 E0.00531
G1 X7.988 Y-48.943 E0.00629
G1 X7.887 Y-48.952 E0.00506
G1 X7.665 Y-48.961 E0.01108
G1 X7.607 Y-48.961 E0.00289
G1 X9.788 Y-46.78 E0.15388
G1 X9.788 Y-45.365 E0.07059
G1 X6.192 Y-48.961 E0.25372
G1 X4.778 Y-48.961 E0.07054
G1 X9.788 Y-43.951 E0.35348
G1 X9.788 Y-42.537 E0.07054
G1 X3.364 Y-48.961 E0.45325
G1 X1.95 Y-48.961 E0.07054
G1 X9.788 Y-41.123 E0.55301
G1 X9.788 Y-39.708 E0.07059
G1 X0.588 Y-48.909 E0.64914
G1 X0.565 Y-48.904 E0.00117
G1 X0.415 Y-48.865 E0.00773
G1 X0.241 Y-48.8 E0.00927
G1 X0.15 Y-48.761 E0.00494
G1 X0.097 Y-48.735 E0.00295
G1 X-0.09 Y-48.616 E0.01106
G1 X-.226 Y-48.515 E0.00845
G1 X-.337 Y-48.42 E0.00729
G1 X9.788 Y-38.294 E0.71441
G1 X9.788 Y-36.88 E0.07054
G1 X-.892 Y-47.561 E0.75357
G1 X-.921 Y-47.463 E0.0051
G1 X-.966 Y-47.214 E0.01262
G1 X-.981 Y-47.079 E0.00678
G1 X-.998 Y-46.817 E0.0131
G1 X-.998 Y-46.253 E0.02814
G1 X9.788 Y-35.466 E0.76105
G1 X9.788 Y-34.052 E0.07054
G1 X-.998 Y-44.839 E0.76105
G1 X-.998 Y-43.424 E0.07059
G1 X9.788 Y-32.637 E0.76105
G1 X9.788 Y-31.223 E0.07054
G1 X-.998 Y-42.01 E0.76105
G1 X-.998 Y-40.596 E0.07054
G1 X9.788 Y-29.809 E0.76105
G1 X9.788 Y-28.395 E0.07054
G1 X-.998 Y-39.182 E0.76105
G1 X-.998 Y-37.767 E0.07059
G1 X9.788 Y-26.981 E0.76101
G1 X9.788 Y-25.566 E0.07059
G1 X-.998 Y-36.353 E0.76105
G1 X-.998 Y-34.939 E0.07054
G1 X9.788 Y-24.152 E0.76105
G1 X9.788 Y-22.738 E0.07054
G1 X-.998 Y-33.525 E0.76105
G1 X-.998 Y-32.111 E0.07054
G1 X9.788 Y-21.324 E0.76105
G1 X9.788 Y-19.91 E0.07054
G1 X-.998 Y-30.696 E0.76101
G1 X-.998 Y-29.282 E0.07054
G1 X9.788 Y-18.495 E0.76105
G1 X9.788 Y-17.081 E0.07054
G1 X-.998 Y-27.868 E0.76105
G1 X-.998 Y-26.454 E0.07054
G1 X9.788 Y-15.667 E0.76105
G1 X9.788 Y-14.253 E0.07054
G1 X-.998 Y-25.04 E0.76105
G1 X-.998 Y-23.625 E0.07059
G1 X9.788 Y-12.838 E0.76105
G1 X9.788 Y-11.424 E0.07054
G1 X-.998 Y-22.211 E0.76105
G1 X-.998 Y-20.797 E0.07054
G1 X9.788 Y-10.01 E0.76105
G1 X9.788 Y-8.596 E0.07054
G1 X-.998 Y-19.383 E0.76105
G1 X-.998 Y-17.968 E0.07059
G1 X9.788 Y-7.182 E0.76101
G1 X9.788 Y-5.767 E0.07059
G1 X-.998 Y-16.554 E0.76105
G1 X-.998 Y-15.14 E0.07054
G1 X9.788 Y-4.353 E0.76105
G1 X9.788 Y-2.939 E0.07054
G1 X-.998 Y-13.726 E0.76105
G1 X-.998 Y-12.312 E0.07054
G1 X9.789 Y-1.524 E0.76112
G1 X9.789 Y-.11 E0.07054
G1 X-.998 Y-10.897 E0.76108
G1 X-.998 Y-9.483 E0.07054
G1 X9.789 Y1.303 E0.76105
G1 X9.789 Y2.718 E0.07059
G1 X-.998 Y-8.069 E0.76108
G1 X-.998 Y-6.655 E0.07054
G1 X9.789 Y4.132 E0.76108
G1 X9.789 Y5.546 E0.07054
G1 X-.998 Y-5.241 E0.76108
G1 X-.998 Y-3.826 E0.07059
G1 X9.789 Y6.96 E0.76105
G1 X9.789 Y8.374 E0.07054
G1 X-.998 Y-2.412 E0.76105
G1 X-.998 Y-.998 E0.07054
G1 X9.789 Y9.789 E0.76108
G1 X9.789 Y11.203 E0.07054
G1 X-.998 Y0.415 E0.76112
G1 X-.998 Y1.829 E0.07054
G1 X9.789 Y12.617 E0.76112
G1 X9.789 Y14.031 E0.07054
G1 X-.998 Y3.244 E0.76108
G1 X-.998 Y4.658 E0.07054
G1 X9.789 Y15.446 E0.76112
G1 X9.789 Y16.86 E0.07054
G1 X-.998 Y6.072 E0.76112
G1 X-.998 Y7.486 E0.07054
G1 X9.789 Y18.274 E0.76112
G1 X9.789 Y19.688 E0.07054
G1 X-.998 Y8.901 E0.76108
G1 X-.998 Y10.315 E0.07054
G1 X9.789 Y21.102 E0.76108
G1 X9.789 Y22.517 E0.07059
G1 X-.998 Y11.729 E0.76112
G1 X-.998 Y13.143 E0.07054
G1 X9.789 Y23.931 E0.76112
G1 X9.789 Y25.345 E0.07054
G1 X-.998 Y14.557 E0.76112
G1 X-.998 Y15.972 E0.07059
G1 X9.789 Y26.759 E0.76108
G1 X9.789 Y28.173 E0.07054
G1 X-.998 Y17.386 E0.76108
G1 X-.998 Y18.8 E0.07054
G1 X9.789 Y29.588 E0.76112
G1 X9.789 Y31.002 E0.07054
G1 X-.998 Y20.214 E0.76112
G1 X-.998 Y20.588 E0.01866
G1 X-1.081 Y21.527 E0.04703
G1 X-1.086 Y21.541 E0.00074
G1 X9.789 Y32.416 E0.76729
G1 X9.789 Y33.83 E0.07054
G1 X-1.414 Y22.626 E0.79047
G1 X-1.494 Y22.831 E0.01098
G1 X-1.817 Y23.432 E0.03404
G1 X-1.904 Y23.551 E0.00735
G1 X9.789 Y35.245 E0.82504
G1 X9.789 Y36.659 E0.07054
G1 X-2.537 Y24.332 E0.8697
G1 X-2.681 Y24.488 E0.01059
G1 X-3.205 Y24.926 E0.03407
G1 X-3.297 Y24.986 E0.00548
G1 X9.789 Y38.073 E0.92332
G1 X9.789 Y39.487 E0.07054
G1 X-4.203 Y25.495 E0.98721
G1 X-4.396 Y25.585 E0.01062
G1 X-5.045 Y25.799 E0.03409
G1 X-5.269 Y25.843 E0.01139
G1 X9.789 Y40.901 E1.06242
G1 X9.789 Y41.693 E0.03951
G1 X9.781 Y41.905 E0.01058
G1 X9.77 Y42.017 E0.00561
G1 X9.753 Y42.162 E0.00728
G1 X9.738 Y42.234 E0.00367
G1 X9.731 Y42.258 E0.00125
G1 X-6.556 Y25.97 E1.14917
G1 X-7.97 Y25.97 E0.07054
G1 X9.235 Y43.176 E1.21394
G1 X9.142 Y43.284 E0.00711
G1 X9.009 Y43.397 E0.00871
G1 X8.871 Y43.502 E0.00865
G1 X8.729 Y43.581 E0.00811
G1 X8.389 Y43.721 E0.01834
G1 X8.37 Y43.726 E0.00098
G1 X-9.384 Y25.97 E1.25271
G1 X-10.798 Y25.97 E0.07054
G1 X7.054 Y43.823 E1.25959
G1 X5.639 Y43.823 E0.07059
G1 X-12.184 Y25.999 E1.25754
G1 X-12.394 Y26.034 E0.01062
G1 X-12.51 Y26.067 E0.00602
G1 X-12.819 Y26.194 E0.01667
G1 X-12.862 Y26.215 E0.00239
G1 X-12.993 Y26.291 E0.00756
G1 X-13.075 Y26.349 E0.00501
G1 X-13.172 Y26.425 E0.00615
G1 X4.225 Y43.823 E1.22749
G1 X2.811 Y43.823 E0.07054
G1 X-13.761 Y27.25 E1.16928
G1 X-13.786 Y27.313 E0.00338
G1 X-13.811 Y27.399 E0.00447
G1 X-13.852 Y27.569 E0.00872
G1 X-13.874 Y27.722 E0.00771
G1 X-13.884 Y27.835 E0.00566
G1 X-13.893 Y28.048 E0.01064
G1 X-13.893 Y28.532 E0.02415
G1 X1.397 Y43.823 E1.07883
G1 X1.126 Y43.824 E0.01352
G1 X0.898 Y43.814 E0.01139
G1 X0.679 Y43.796 E0.01096
G1 X0.014 Y43.781 E0.03319
G1 X-0.053 Y43.786 E0.00335
G1 X-13.893 Y29.946 E0.97649
G1 X-13.893 Y31.36 E0.07054
G1 X-1.378 Y43.876 E0.88304
G1 X-2.792 Y43.876 E0.07054
G1 X-13.893 Y32.775 E0.78324
G1 X-13.893 Y34.189 E0.07054
G1 X-4.206 Y43.876 E0.68347
G1 X-5.62 Y43.876 E0.07054
G1 X-13.893 Y35.603 E0.5837
G1 X-13.893 Y37.017 E0.07054
G1 X-7.035 Y43.875 E0.48387
G1 X-8.449 Y43.875 E0.07054
G1 X-13.893 Y38.431 E0.3841
G1 X-13.893 Y39.846 E0.07059
G1 X-9.864 Y43.875 E0.28427
G1 X-11.278 Y43.875 E0.07054
G1 X-13.893 Y41.26 E0.1845
G1 X-13.893 Y41.81 E0.02744
G1 X-13.886 Y41.987 E0.00884
G1 X-13.876 Y42.103 E0.00581
G1 X-13.859 Y42.251 E0.00743
G1 X-13.844 Y42.315 E0.00328
G1 X-13.809 Y42.456 E0.00725
G1 X-13.783 Y42.544 E0.00458
G1 X-13.732 Y42.674 E0.00697
G1 X-13.688 Y42.779 E0.00568
G1 X-13.622 Y42.909 E0.00727
G1 X-13.51 Y43.057 E0.00926
G1 X-13.048 Y43.52 E0.03263
G1 X-13.092 Y43.487 E0.00274
G1 X-13.17 Y43.426 E0.00494
G1 X-13.237 Y43.368 E0.00442
G1 X-13.379 Y43.227 E0.00998
G1 X-13.403 Y43.2 E0.0018
G0 F600 X-13.403 Y43.2 Z0.61
G0 F7200 X-12.24 Y44.039
;TIME_ELAPSED:108.664547
;LAYER:-7
;TYPE:SUPPORT-INTERFACE
G1 F1800 X-12.068 Y44.059 E0.00288
G1 X-11.778 Y44.077 E0.00483
G1 X-1.043 Y44.078 E0.17852
G1 X-.85 Y44.07 E0.00321
G1 X-.729 Y44.06 E0.00202
G1 X-.41 Y44.019 E0.00535
G1 X-.183 Y44 E0.00379
G1 X-12.448 Y44 E0.20397
G1 X-12.464 Y43.997 E0.00027
G1 X-12.666 Y43.935 E0.00351
G1 X-13.039 Y43.764 E0.00682
G1 X-13.128 Y43.709 E0.00174
G1 X-13.209 Y43.65 E0.00167
G1 X-13.273 Y43.6 E0.00135
G1 X9.073 Y43.6 E0.37162
G1 X9.14 Y43.55 E0.00139
G1 X9.288 Y43.425 E0.00322
G1 X9.477 Y43.2 E0.00489
G1 X-13.653 Y43.2 E0.38465
G1 X-13.788 Y43.021 E0.00373
G1 X-13.811 Y42.981 E0.00077
G1 X-13.866 Y42.869 E0.00208
G1 X-13.897 Y42.8 E0.00126
G1 X9.75 Y42.8 E0.39325
G1 X9.756 Y42.791 E0.00018
G1 X9.825 Y42.63 E0.00291
G1 X9.878 Y42.484 E0.00258
G1 X9.901 Y42.4 E0.00145
G1 X-14.03 Y42.4 E0.39797
G1 X-14.036 Y42.373 E0.00046
G1 X-14.057 Y42.274 E0.00168
G1 X-14.077 Y42.115 E0.00267
G1 X-14.085 Y42.013 E0.0017
G1 X-14.086 Y42 E0.00022
G1 X9.973 Y42 E0.4001
G1 X9.979 Y41.932 E0.00114
G1 X9.988 Y41.703 E0.00381
G1 X9.988 Y41.6 E0.00171
G1 X-14.093 Y41.6 E0.40047
G1 X-14.093 Y41.2 E0.00665
G1 X9.988 Y41.2 E0.40047
G1 X9.988 Y40.8 E0.00665
G1 X-14.093 Y40.8 E0.40047
G1 X-14.093 Y40.4 E0.00665
G1 X9.988 Y40.4 E0.40047
G1 X9.988 Y40 E0.00665
G1 X-14.093 Y40 E0.40047
G1 X-14.093 Y39.6 E0.00665
G1 X9.988 Y39.6 E0.40047
G1 X9.988 Y39.2 E0.00665
G1 X-14.093 Y39.2 E0.40047
G1 X-14.093 Y38.8 E0.00665
G1 X9.988 Y38.8 E0.40047
G1 X9.988 Y38.4 E0.00665
G1 X-14.093 Y38.4 E0.40047
G1 X-14.093 Y38 E0.00665
G1 X9.988 Y38 E0.40047
G1 X9.988 Y37.6 E0.00665
G1 X-14.093 Y37.6 E0.40047
G1 X-14.093 Y37.2 E0.00665
G1 X9.988 Y37.2 E0.40047
G1 X9.988 Y36.8 E0.00665
G1 X-14.093 Y36.8 E0.40047
G1 X-14.093 Y36.4 E0.00665
G1 X9.988 Y36.4 E0.40047
G1 X9.988 Y36 E0.00665
G1 X-14.093 Y36 E0.40047
G1 X-14.093 Y35.6 E0.00665
G1 X9.988 Y35.6 E0.40047
G1 X9.988 Y35.2 E0.00665
G1 X-14.093 Y35.2 E0.40047
G1 X-14.093 Y34.8 E0.00665
G1 X9.988 Y34.8 E0.40047
G1 X9.988 Y34.4 E0.00665
G1 X-14.093 Y34.4 E0.40047
G1 X-14.093 Y34 E0.00665
G1 X9.988 Y34 E0.40047
G1 X9.988 Y33.6 E0.00665
G1 X-14.093 Y33.6 E0.40047
G1 X-14.093 Y33.2 E0.00665
G1 X9.988 Y33.2 E0.40047
G1 X9.988 Y32.8 E0.00665
G1 X-14.093 Y32.8 E0.40047
G1 X-14.093 Y32.4 E0.00665
G1 X9.988 Y32.4 E0.40047
G1 X9.988 Y32 E0.00665
G1 X-14.093 Y32 E0.40047
G1 X-14.093 Y31.6 E0.00665
G1 X9.988 Y31.6 E0.40047
G1 X9.988 Y31.2 E0.00665
G1 X-14.093 Y31.2 E0.40047
G1 X-14.093 Y30.8 E0.00665
G1 X9.988 Y30.8 E0.40047
G1 X9.988 Y30.4 E0.00665
G1 X-14.093 Y30.4 E0.40047
G1 X-14.093 Y30 E0.00665
G1 X9.988 Y30 E0.40047
G1 X9.988 Y29.6 E0.00665
G1 X-14.093 Y29.6 E0.40047
G1 X-14.093 Y29.2 E0.00665
G1 X9.988 Y29.2 E0.40047
G1 X9.988 Y28.8 E0.00665
G1 X-14.093 Y28.8 E0.40047
G1 X-14.093 Y28.4 E0.00665
G1 X9.988 Y28.4 E0.40047
G1 X9.988 Y28 E0.00665
G1 X-14.091 Y28 E0.40044
G1 X-14.083 Y27.826 E0.0029
G1 X-14.071 Y27.696 E0.00217
G1 X-14.057 Y27.6 E0.00161
G1 X9.988 Y27.6 E0.39987
G1 X9.988 Y27.2 E0.00665
G1 X-13.954 Y27.2 E0.39816
G1 X-13.9 Y27.065 E0.00242
G1 X-13.834 Y26.922 E0.00262
G1 X-13.793 Y26.846 E0.00144
G1 X-13.761 Y26.8 E0.00093
G1 X9.988 Y26.8 E0.39495
G1 X9.988 Y26.4 E0.00665
G1 X-13.436 Y26.4 E0.38954
G1 X-13.381 Y26.341 E0.00134
G1 X-13.302 Y26.274 E0.00172
G1 X-13.183 Y26.181 E0.00251
G1 X-13.112 Y26.13 E0.00145
G1 X-12.948 Y26.036 E0.00314
G1 X-12.905 Y26.015 E0.0008
G1 X-12.868 Y26 E0.00066
G1 X9.988 Y26 E0.3801
G1 X9.988 Y25.6 E0.00665
G1 X-5.076 Y25.6 E0.25052
G1 X-4.471 Y25.401 E0.01059
G1 X-4.046 Y25.2 E0.00782
G1 X9.988 Y25.2 E0.23339
G1 X9.988 Y24.8 E0.00665
G1 X-3.375 Y24.8 E0.22223
G1 X-3.322 Y24.766 E0.00105
G1 X-2.885 Y24.4 E0.00948
G1 X9.988 Y24.4 E0.21408
G1 X9.988 Y24 E0.00665
G1 X-2.499 Y24 E0.20766
G1 X-2.371 Y23.862 E0.00313
G1 X-2.182 Y23.6 E0.00537
G1 X9.988 Y23.6 E0.20239
G1 X9.988 Y23.2 E0.00665
G1 X-1.918 Y23.2 E0.198
G1 X-1.702 Y22.8 E0.00756
G1 X9.988 Y22.8 E0.19441
G1 X9.988 Y22.4 E0.00665
G1 X-1.54 Y22.4 E0.19171
G1 X-1.438 Y22.136 E0.00471
G1 X-1.404 Y22 E0.00233
G1 X9.988 Y22 E0.18945
G1 X9.988 Y21.6 E0.00665
G1 X-1.305 Y21.6 E0.1878
G1 X-1.279 Y21.495 E0.0018
G1 X-1.252 Y21.2 E0.00493
G1 X9.988 Y21.2 E0.18692
G1 X9.988 Y20.8 E0.00665
G1 X-1.216 Y20.8 E0.18632
G1 X-1.197 Y20.58 E0.00367
G1 X-1.198 Y20.4 E0.00299
G1 X9.988 Y20.4 E0.18602
G1 X9.988 Y20 E0.00665
G1 X-1.198 Y20 E0.18602
G1 X-1.198 Y19.6 E0.00665
G1 X9.988 Y19.6 E0.18602
G1 X9.988 Y19.2 E0.00665
G1 X-1.198 Y19.2 E0.18602
G1 X-1.198 Y18.8 E0.00665
G1 X9.988 Y18.8 E0.18602
G1 X9.988 Y18.4 E0.00665
G1 X-1.198 Y18.4 E0.18602
G1 X-1.198 Y18 E0.00665
G1 X9.988 Y18 E0.18602
G1 X9.988 Y17.6 E0.00665
G1 X-1.198 Y17.6 E0.18602
G1 X-1.198 Y17.2 E0.00665
G1 X9.988 Y17.2 E0.18602
G1 X9.988 Y16.8 E0.00665
G1 X-1.198 Y16.8 E0.18602
G1 X-1.198 Y16.4 E0.00665
G1 X9.988 Y16.4 E0.18602
G1 X9.988 Y16 E0.00665
G1 X-1.198 Y16 E0.18602
G1 X-1.198 Y15.6 E0.00665
G1 X9.988 Y15.6 E0.18602
G1 X9.988 Y15.2 E0.00665
G1 X-1.198 Y15.2 E0.18602
G1 X-1.198 Y14.8 E0.00665
G1 X9.989 Y14.8 E0.18604
G1 X9.989 Y14.4 E0.00665
G1 X-1.198 Y14.4 E0.18604
G1 X-1.198 Y14 E0.00665
G1 X9.989 Y14 E0.18604
G1 X9.989 Y13.6 E0.00665
G1 X-1.198 Y13.6 E0.18604
G1 X-1.198 Y13.2 E0.00665
G1 X9.989 Y13.2 E0.18604
G1 X9.989 Y12.8 E0.00665
G1 X-1.198 Y12.8 E0.18604
G1 X-1.198 Y12.4 E0.00665
G1 X9.989 Y12.4 E0.18604
G1 X9.989 Y12 E0.00665
G1 X-1.198 Y12 E0.18604
G1 X-1.198 Y11.6 E0.00665
G1 X9.989 Y11.6 E0.18604
G1 X9.989 Y11.2 E0.00665
G1 X-1.198 Y11.2 E0.18604
G1 X-1.198 Y10.8 E0.00665
G1 X9.989 Y10.8 E0.18604
G1 X9.989 Y10.4 E0.00665
G1 X-1.198 Y10.4 E0.18604
G1 X-1.198 Y10 E0.00665
G1 X9.989 Y10 E0.18604
G1 X9.989 Y9.6 E0.00665
G1 X-1.198 Y9.6 E0.18604
G1 X-1.198 Y9.2 E0.00665
G1 X9.989 Y9.2 E0.18604
G1 X9.989 Y8.8 E0.00665
G1 X-1.198 Y8.8 E0.18604
G1 X-1.198 Y8.4 E0.00665
G1 X9.989 Y8.4 E0.18604
G1 X9.989 Y8 E0.00665
G1 X-1.198 Y8 E0.18604
G1 X-1.198 Y7.6 E0.00665
G1 X9.989 Y7.6 E0.18604
G1 X9.989 Y7.2 E0.00665
G1 X-1.198 Y7.2 E0.18604
G1 X-1.198 Y6.8 E0.00665
G1 X9.989 Y6.8 E0.18604
G1 X9.989 Y6.4 E0.00665
G1 X-1.198 Y6.4 E0.18604
G1 X-1.198 Y6 E0.00665
G1 X9.989 Y6 E0.18604
G1 X9.989 Y5.6 E0.00665
G1 X-1.198 Y5.6 E0.18604
G1 X-1.198 Y5.2 E0.00665
G1 X9.989 Y5.2 E0.18604
G1 X9.989 Y4.8 E0.00665
G1 X-1.198 Y4.8 E0.18604
