;FLAVOR:RepRap
;TIME:3145
;Filament used: 1.86027m
;Layer height: 0.1
;MINX:-14.291
;MINY:-47.675
;MINZ:0.36
;MAXX:18.098
;MAXY:45.557
;MAXZ:3.66
;Generated with Cura_SteamEngine 4.9.1
T0
M190 S60
M104 S200
M109 S200
M82 ;absolute extrusion mode
G28 ;Home
G1 Z15.0 F6000 ;Move the platform down 15mm
;Prime the extruder
G92 E0
G1 F200 E3
G92 E0
M83 ;relative extrusion mode
G1 F1500 E-6.5
;LAYER_COUNT:28
;LAYER:-9
M107
G0 F7200 X-13.998 Y-0.01 Z0.36
;TYPE:SUPPORT-INTERFACE
G1 F1500 E6.5
G1 F1350 X-14.037 Y-.517 E0.06089
G1 X-14.091 Y-1.101 E0.07022
G1 X-14.091 Y-14.851 E1.64638
G1 X-14.034 Y-15.412 E0.06752
G1 X-13.852 Y-15.902 E0.06259
G1 X-13.596 Y-16.26 E0.0527
G1 X-13.196 Y-16.618 E0.06428
G1 X-12.704 Y-16.845 E0.06488
G1 X-12.247 Y-16.925 E0.05555
G1 X-11.98 Y-16.941 E0.03203
G1 X-6.751 Y-16.941 E0.6261
G1 X-6.083 Y-16.983 E0.08014
G1 X-5.412 Y-17.112 E0.08181
G1 X-4.763 Y-17.325 E0.08179
G1 X-4.146 Y-17.617 E0.08173
G1 X-3.571 Y-17.985 E0.08174
G1 X-3.047 Y-18.423 E0.08177
G1 X-2.583 Y-18.923 E0.08168
G1 X-2.184 Y-19.479 E0.08194
G1 X-1.86 Y-20.079 E0.08165
G1 X-1.614 Y-20.715 E0.08165
G1 X-1.448 Y-21.384 E0.08253
G1 X-1.364 Y-22.323 E0.11288
G1 X-1.363 Y-45.286 E2.74951
G1 X-1.286 Y-45.932 E0.0779
G1 X-1.133 Y-46.357 E0.05409
G1 X-.816 Y-46.793 E0.06455
G1 X-.28 Y-47.198 E0.08044
G1 X0.199 Y-47.374 E0.0611
G1 X0.77 Y-47.431 E0.06871
G1 X7.34 Y-47.43 E0.78667
G1 X8.087 Y-47.378 E0.08966
G1 X8.292 Y-47.398 E0.02466
G1 X8.808 Y-47.442 E0.06201
G1 X9.244 Y-47.475 E0.05235
G1 X15.774 Y-47.474 E0.78188
G1 X16.308 Y-47.423 E0.06423
G1 X16.782 Y-47.258 E0.0601
G1 X17.359 Y-46.827 E0.08623
G1 X17.654 Y-46.414 E0.06077
G1 X17.814 Y-46.008 E0.05225
G1 X17.897 Y-45.331 E0.08167
G1 X17.898 Y43.194 E10.59967
G1 X17.839 Y43.755 E0.06754
G1 X17.691 Y44.179 E0.05377
G1 X17.456 Y44.532 E0.05078
G1 X17.118 Y44.887 E0.05869
G1 X16.834 Y45.072 E0.04058
G1 X16.435 Y45.229 E0.05134
G1 X15.74 Y45.313 E0.08382
G1 X9.244 Y45.314 E0.77781
G1 X8.916 Y45.295 E0.03934
G1 X8.25 Y45.275 E0.07978
G1 X7.541 Y45.34 E0.08525
G1 X7.273 Y45.356 E0.03215
G1 X0.752 Y45.357 E0.7808
G1 X0.164 Y45.291 E0.07085
G1 X-.305 Y45.114 E0.06002
G1 X-.725 Y44.812 E0.06194
G1 X-.788 Y44.749 E0.01067
G1 X-1.1 Y44.334 E0.06217
G1 X-1.279 Y43.894 E0.05688
G1 X-1.363 Y43.205 E0.08311
G1 X-1.363 Y22.305 E2.50249
G1 X-1.405 Y21.637 E0.08014
G1 X-1.534 Y20.966 E0.08181
G1 X-1.747 Y20.317 E0.08179
G1 X-2.039 Y19.7 E0.08173
G1 X-2.407 Y19.125 E0.08174
G1 X-2.845 Y18.601 E0.08177
G1 X-3.345 Y18.137 E0.08168
G1 X-3.901 Y17.738 E0.08194
G1 X-4.501 Y17.414 E0.08165
G1 X-5.137 Y17.168 E0.08165
G1 X-5.806 Y17.002 E0.08253
G1 X-6.744 Y16.918 E0.11276
G1 X-11.93 Y16.917 E0.62095
G1 X-12.57 Y16.844 E0.07713
G1 X-13.101 Y16.627 E0.06868
G1 X-13.402 Y16.402 E0.045
G1 X-13.779 Y15.947 E0.07075
G1 X-13.971 Y15.468 E0.06179
G1 X-14.041 Y15.039 E0.05205
G1 X-14.049 Y14.833 E0.02468
G1 X-14.049 Y1.091 E1.64542
G1 X-14.018 Y0.657 E0.0521
G1 X-13.998 Y-0.01 E0.0799
G0 F7200 X-12.8 Y16.75
G1 F1350 X-12.8 Y-16.801 E4.01728
G0 F7200 X-11.2 Y-16.941
G1 F1350 X-11.2 Y16.917 E4.05404
G0 F7200 X-9.6 Y16.917
G1 F1350 X-9.6 Y-16.941 E4.05404
G0 F7200 X-8 Y-16.941
G1 F1350 X-8 Y16.917 E4.05404
G0 F7200 X-6.4 Y16.948
G1 F1350 X-6.4 Y-16.964 E4.0605
G0 F7200 X-4.8 Y-17.313
G1 F1350 X-4.8 Y17.298 E4.1442
G0 F7200 X-3.2 Y18.271
G1 F1350 X-3.2 Y-18.296 E4.3784
G0 F7200 X-1.6 Y-20.772
G1 F1350 X-1.6 Y20.764 E4.97337
G0 F7200 X0.00 Y45.229
G1 F1350 X0.00 Y-47.301 E11.07922
G0 F7200 X1.6 Y-47.43
G1 F1350 X1.6 Y45.357 E11.10999
G0 F7200 X3.2 Y45.357
G1 F1350 X3.2 Y-47.43 E11.10999
G0 F7200 X4.8 Y-47.43
G1 F1350 X4.8 Y45.357 E11.10999
G0 F7200 X6.4 Y45.357
G1 F1350 X6.4 Y-47.43 E11.10999
G0 F7200 X8 Y-47.384
G1 F1350 X8 Y45.298 E11.09742
G0 F7200 X9.6 Y45.314
G1 F1350 X9.6 Y-47.474 E11.11011
G0 F7200 X11.2 Y-47.474
G1 F1350 X11.2 Y45.314 E11.11011
G0 F7200 X12.8 Y45.314
G1 F1350 X12.8 Y-47.474 E11.11011
G0 F7200 X14.4 Y-47.474
G1 F1350 X14.4 Y45.314 E11.11011
G0 F7200 X16 Y45.282
G1 F1350 X16 Y-47.452 E11.10364
G0 F7200 X17.6 Y-46.489
G1 F1350 X17.6 Y44.316 E10.87267
G0 F600 X17.6 Y44.316 Z0.51
G0 F7200 X-.724 Y44.811
;TIME_ELAPSED:76.157014
;LAYER:-8
;TYPE:SUPPORT
G1 F1350 X-.444 Y45.028 E0.01767
G1 X-.391 Y45.062 E0.00314
G1 X-.305 Y45.113 E0.00499
G1 X-.179 Y45.171 E0.00692
G1 X-0.076 Y45.212 E0.00553
G1 X-0.024 Y45.23 E0.00275
G1 X-1.234 Y44.02 E0.08537
G1 X-1.264 Y43.948 E0.00389
G1 X-1.279 Y43.893 E0.00284
G1 X-1.327 Y43.628 E0.01344
G1 X-1.346 Y43.479 E0.00749
G1 X-1.363 Y43.204 E0.01375
G1 X-1.363 Y42.477 E0.03627
G1 X1.514 Y45.355 E0.20302
G1 X2.928 Y45.355 E0.07054
G1 X-1.363 Y41.063 E0.30279
G1 X-1.363 Y39.648 E0.07059
G1 X4.343 Y45.355 E0.40262
G1 X5.757 Y45.355 E0.07054
G1 X-1.363 Y38.234 E0.50239
G1 X-1.363 Y36.82 E0.07054
G1 X7.171 Y45.355 E0.60216
G1 X7.273 Y45.355 E0.00509
G1 X7.541 Y45.338 E0.0134
G1 X7.778 Y45.31 E0.01191
G1 X8.249 Y45.273 E0.02357
G1 X8.512 Y45.281 E0.01313
G1 X-1.363 Y35.406 E0.69673
G1 X-1.363 Y33.992 E0.07054
G1 X9.957 Y45.312 E0.79869
G1 X11.371 Y45.312 E0.07054
G1 X-1.363 Y32.577 E0.89849
G1 X-1.363 Y31.163 E0.07054
G1 X12.785 Y45.312 E0.99825
G1 X14.199 Y45.312 E0.07054
G1 X-1.363 Y29.749 E1.09802
G1 X-1.363 Y28.335 E0.07054
G1 X15.613 Y45.312 E1.19778
G1 X15.739 Y45.312 E0.00629
G1 X16.019 Y45.295 E0.01399
G1 X16.177 Y45.275 E0.00795
G1 X16.435 Y45.228 E0.01308
G1 X16.49 Y45.213 E0.00284
G1 X16.8 Y45.085 E0.01673
G1 X-1.363 Y26.92 E1.28157
G1 X-1.363 Y25.506 E0.07054
G1 X17.543 Y44.413 E1.33396
G1 X17.562 Y44.387 E0.00161
G1 X17.691 Y44.177 E0.0123
G1 X17.744 Y44.052 E0.00677
G1 X17.797 Y43.905 E0.0078
G1 X17.831 Y43.789 E0.00603
G1 X17.856 Y43.674 E0.00587
G1 X17.879 Y43.517 E0.00792
G1 X17.889 Y43.407 E0.00551
G1 X17.891 Y43.347 E0.003
G1 X-1.363 Y24.092 E1.35851
G1 X-1.363 Y22.678 E0.07054
G1 X17.898 Y41.939 E1.35897
G1 X17.898 Y40.525 E0.07054
G1 X-1.503 Y21.124 E1.36885
G1 X-1.533 Y20.965 E0.00807
G1 X-1.747 Y20.315 E0.03414
G1 X-2.038 Y19.699 E0.03399
G1 X-2.406 Y19.124 E0.03406
G1 X-2.844 Y18.6 E0.03407
G1 X-3.345 Y18.136 E0.03407
G1 X-3.901 Y17.737 E0.03414
G1 X-4.501 Y17.413 E0.03402
G1 X-5.137 Y17.167 E0.03402
G0 F7200 X-13.048 Y16.649
G1 F1350 X-12.744 Y16.789 E0.0167
G1 X-12.569 Y16.843 E0.00914
G1 X-12.363 Y16.88 E0.01044
G1 X-12.212 Y16.899 E0.00759
G1 X-11.929 Y16.916 E0.01414
G1 X-11.368 Y16.916 E0.02799
G1 X-14.048 Y14.235 E0.18912
G1 X-14.048 Y12.821 E0.07054
G1 X-9.953 Y16.916 E0.28892
G1 X-8.539 Y16.916 E0.07054
G1 X-14.048 Y11.407 E0.38869
G1 X-14.048 Y9.992 E0.07059
G1 X-7.124 Y16.916 E0.48853
G1 X-6.743 Y16.917 E0.01901
G1 X-5.806 Y17 E0.04693
G1 X-5.567 Y17.06 E0.01229
G1 X-14.048 Y8.578 E0.59842
G1 X-14.048 Y7.164 E0.07054
G1 X17.898 Y39.111 E2.254
G1 X17.898 Y37.697 E0.07054
G1 X-14.048 Y5.75 E2.254
G1 X-14.048 Y4.335 E0.07059
G1 X17.898 Y36.283 E2.25403
G1 X17.898 Y34.868 E0.07059
G1 X-14.048 Y2.921 E2.254
G1 X-14.048 Y1.507 E0.07054
G1 X17.898 Y33.454 E2.254
G1 X17.898 Y32.04 E0.07054
G1 X-14.002 Y0.139 E2.25075
G1 X-13.997 Y-0.009 E0.00739
G1 X-14.036 Y-.516 E0.02537
G1 X-14.074 Y-.817 E0.01514
G1 X-14.082 Y-.907 E0.00451
G1 X-14.09 Y-1.1 E0.00964
G1 X-14.091 Y-1.363 E0.01312
G1 X17.898 Y30.626 E2.257
G1 X17.898 Y29.211 E0.07059
G1 X-14.091 Y-2.777 E2.25696
G1 X-14.091 Y-4.191 E0.07054
G1 X17.898 Y27.797 E2.25696
G1 X17.898 Y26.383 E0.07054
G1 X-14.091 Y-5.605 E2.25696
G1 X-14.091 Y-7.02 E0.07059
G1 X17.898 Y24.969 E2.257
G1 X17.898 Y23.555 E0.07054
G1 X-14.091 Y-8.434 E2.257
G1 X-14.091 Y-9.848 E0.07054
G1 X17.898 Y22.14 E2.25696
G1 X17.898 Y20.726 E0.07054
G1 X-14.091 Y-11.262 E2.25696
G1 X-14.091 Y-12.677 E0.07059
G1 X17.898 Y19.312 E2.257
G1 X17.898 Y17.898 E0.07054
G1 X-14.091 Y-14.091 E2.257
G1 X-14.091 Y-14.85 E0.03787
G1 X-14.079 Y-15.082 E0.01159
G1 X-14.07 Y-15.199 E0.00585
G1 X-14.051 Y-15.331 E0.00665
G1 X-14.026 Y-15.44 E0.00558
G1 X17.898 Y16.484 E2.25241
G1 X17.898 Y15.069 E0.07059
G1 X-13.517 Y-16.345 E2.21646
G1 X-13.447 Y-16.419 E0.00508
G1 X-13.374 Y-16.481 E0.00478
G1 X-13.258 Y-16.573 E0.00739
G1 X-13.196 Y-16.617 E0.00379
G1 X-13.058 Y-16.694 E0.00788
G1 X-13.019 Y-16.715 E0.00221
G1 X-12.703 Y-16.844 E0.01703
G1 X-12.637 Y-16.863 E0.00343
G1 X-12.622 Y-16.865 E0.00075
G1 X17.898 Y13.655 E2.15335
G1 X17.898 Y12.241 E0.07054
G1 X-11.283 Y-16.94 E2.05888
G1 X-9.869 Y-16.94 E0.07054
G1 X17.898 Y10.827 E1.95911
G1 X17.898 Y9.413 E0.07054
G1 X-8.454 Y-16.94 E1.85931
G1 X-7.04 Y-16.94 E0.07054
G1 X17.898 Y7.998 E1.75951
G1 X17.898 Y6.584 E0.07054
G1 X-5.735 Y-17.049 E1.66744
G1 X-5.411 Y-17.111 E0.01646
G1 X-4.763 Y-17.324 E0.03403
G1 X-4.649 Y-17.377 E0.00627
G1 X17.898 Y5.17 E1.59081
G1 X17.898 Y3.756 E0.07054
G1 X-3.736 Y-17.878 E1.5264
G1 X-3.57 Y-17.984 E0.00983
G1 X-3.046 Y-18.422 E0.03407
G1 X-2.959 Y-18.516 E0.00639
G1 X17.898 Y2.341 E1.47157
G1 X17.898 Y0.927 E0.07054
G1 X-2.32 Y-19.29 E1.42645
G1 X-2.184 Y-19.478 E0.01158
G1 X-1.86 Y-20.078 E0.03402
G1 X-1.814 Y-20.199 E0.00646
G1 X17.898 Y-.486 E1.39082
G1 X17.897 Y-1.901 E0.07059
G1 X-1.475 Y-21.274 E1.36683
G1 X-1.448 Y-21.382 E0.00555
G1 X-1.364 Y-22.322 E0.04708
G1 X-1.364 Y-22.577 E0.01272
G1 X17.897 Y-3.315 E1.359
G1 X17.897 Y-4.729 E0.07054
G1 X-1.364 Y-23.991 E1.359
G1 X-1.364 Y-25.405 E0.07054
G1 X17.897 Y-6.144 E1.35897
G1 X17.897 Y-7.558 E0.07054
G1 X-1.364 Y-26.819 E1.35897
G1 X-1.364 Y-28.234 E0.07059
G1 X17.897 Y-8.972 E1.359
G1 X17.897 Y-10.386 E0.07054
G1 X-1.364 Y-29.648 E1.359
G1 X-1.364 Y-31.062 E0.07054
G1 X17.897 Y-11.8 E1.359
G1 X17.897 Y-13.215 E0.07059
G1 X-1.364 Y-32.476 E1.35897
G1 X-1.363 Y-33.89 E0.07054
G1 X17.897 Y-14.629 E1.35893
G1 X17.897 Y-16.043 E0.07054
G1 X-1.363 Y-35.304 E1.35893
G1 X-1.363 Y-36.718 E0.07054
G1 X17.897 Y-17.457 E1.35893
G1 X17.897 Y-18.871 E0.07054
G1 X-1.363 Y-38.132 E1.35893
G1 X-1.363 Y-39.547 E0.07059
G1 X17.897 Y-20.286 E1.35893
G1 X17.897 Y-21.7 E0.07054
G1 X-1.363 Y-40.961 E1.35893
G1 X-1.363 Y-42.375 E0.07054
G1 X17.897 Y-23.114 E1.35893
G1 X17.897 Y-24.528 E0.07054
G1 X-1.363 Y-43.789 E1.35893
G1 X-1.363 Y-45.203 E0.07054
G1 X17.897 Y-25.943 E1.3589
G1 X17.897 Y-27.357 E0.07054
G1 X-1.121 Y-46.376 E1.34186
G1 X-1.059 Y-46.48 E0.00604
G1 X-.999 Y-46.572 E0.00548
G1 X-.917 Y-46.676 E0.00661
G1 X-.816 Y-46.792 E0.00767
G1 X-.598 Y-46.978 E0.0143
G1 X-.467 Y-47.077 E0.00819
G1 X-.43 Y-47.099 E0.00215
G1 X17.897 Y-28.771 E1.2931
G1 X17.897 Y-30.185 E0.07054
G1 X0.658 Y-47.424 E1.2163
G1 X0.77 Y-47.43 E0.0056
G1 X2.067 Y-47.429 E0.06471
G1 X17.897 Y-31.599 E1.11689
G1 X17.897 Y-33.014 E0.07059
G1 X3.481 Y-47.429 E1.01709
G1 X4.896 Y-47.429 E0.07059
G1 X17.897 Y-34.428 E0.91729
G1 X17.897 Y-35.842 E0.07054
G1 X6.31 Y-47.429 E0.81753
G1 X7.34 Y-47.429 E0.05139
G1 X7.493 Y-47.424 E0.00764
G1 X7.642 Y-47.414 E0.00745
G1 X7.749 Y-47.405 E0.00536
G1 X17.897 Y-37.256 E0.71603
G1 X17.897 Y-38.67 E0.07054
G1 X9.101 Y-47.467 E0.62064
G1 X9.244 Y-47.474 E0.00714
G1 X10.509 Y-47.473 E0.06311
G1 X17.897 Y-40.085 E0.52126
G1 X17.897 Y-41.499 E0.07054
G1 X11.923 Y-47.473 E0.4215
G1 X13.337 Y-47.473 E0.07054
G1 X17.897 Y-42.913 E0.32173
G1 X17.897 Y-44.327 E0.07054
G1 X14.751 Y-47.473 E0.22197
G1 X15.774 Y-47.473 E0.05104
G1 X15.996 Y-47.464 E0.01108
G1 X16.106 Y-47.455 E0.00551
G1 X16.196 Y-47.443 E0.00453
G1 X17.854 Y-45.785 E0.11698
G0 F7200 X17.813 Y-46.007
G1 F1350 X17.796 Y-46.069 E0.00321
G1 X17.653 Y-46.413 E0.01859
G1 X17.575 Y-46.553 E0.008
G1 X17.471 Y-46.693 E0.0087
G1 X17.358 Y-46.826 E0.00871
G1 X17.134 Y-47.018 E0.01472
G1 X16.979 Y-47.132 E0.0096
G1 X16.782 Y-47.257 E0.01164
G1 X16.726 Y-47.283 E0.00308
G1 X16.638 Y-47.32 E0.00476
G1 X16.484 Y-47.376 E0.00818
G1 X16.409 Y-47.398 E0.0039
G1 X16.308 Y-47.422 E0.00518
G1 X16.223 Y-47.439 E0.00432
G1 X16.196 Y-47.443 E0.00136
G0 F7200 X-13.806 Y15.892
G1 F1350 X-13.048 Y16.649 E0.05345
G1 X-13.1 Y16.626 E0.00284
G1 X-13.179 Y16.578 E0.00461
G1 X-13.239 Y16.534 E0.00371
G1 X-13.338 Y16.456 E0.00629
G1 X-13.401 Y16.401 E0.00417
G1 X-13.536 Y16.263 E0.00963
G1 X-13.566 Y16.229 E0.00226
G1 X-13.783 Y15.937 E0.01815
G0 F7200 X-5.275 Y17.608
G0 X-4.144 Y18.13
G0 X-3.182 Y18.917
G0 X-2.443 Y19.924
G0 X-1.981 Y21.082
G0 X-1.122 Y44.292
G1 F1350 X-1.042 Y44.434 E0.00813
G1 X-.999 Y44.493 E0.00364
G1 X-.929 Y44.585 E0.00577
G1 X-.815 Y44.722 E0.00889
G1 X-.724 Y44.811 E0.00635
G0 F600 X-.724 Y44.811 Z0.61
G0 F7200 X-.547 Y45.2
;TIME_ELAPSED:181.879858
;LAYER:-7
;TYPE:SUPPORT-INTERFACE
G1 F1800 X17.013 Y45.2 E0.29202
G1 X16.922 Y45.251 E0.00173
G1 X16.557 Y45.402 E0.00657
G1 X16.484 Y45.423 E0.00126
G1 X16.194 Y45.476 E0.0049
G1 X16.048 Y45.494 E0.00245
G1 X15.734 Y45.513 E0.00523
G1 X9.234 Y45.514 E0.1081
G1 X8.995 Y45.503 E0.00398
G1 X8.902 Y45.494 E0.00155
G1 X8.253 Y45.475 E0.0108
G1 X7.798 Y45.51 E0.00759
G1 X7.562 Y45.538 E0.00395
G1 X7.267 Y45.556 E0.00491
G1 X0.744 Y45.557 E0.10848
G1 X0.531 Y45.549 E0.00354
G1 X0.337 Y45.531 E0.00324
G1 X0.244 Y45.514 E0.00157
G1 X0.127 Y45.488 E0.00199
G1 X0.037 Y45.465 E0.00154
G1 X-.135 Y45.404 E0.00303
G1 X-.267 Y45.351 E0.00237
G1 X-.392 Y45.294 E0.00228
G1 X-.504 Y45.228 E0.00216
G0 F7200 X17.013 Y45.2
G1 F1800 X17.09 Y45.157 E0.00147
G1 X17.248 Y45.038 E0.00329
G1 X17.394 Y44.914 E0.00319
G1 X17.49 Y44.8 E0.00248
G1 X-1.01 Y44.8 E0.30766
G1 X-1.087 Y44.708 E0.002
G1 X-1.157 Y44.617 E0.00191
G1 X-1.209 Y44.545 E0.00148
G1 X-1.29 Y44.4 E0.00276
G1 X17.788 Y44.4 E0.31727
G1 X17.864 Y44.279 E0.00238
G1 X17.936 Y44.111 E0.00304
G1 X17.976 Y44 E0.00196
G1 X-1.456 Y44 E0.32316
G1 X-1.472 Y43.944 E0.00097
G1 X-1.524 Y43.657 E0.00485
G1 X-1.532 Y43.6 E0.00096
G1 X18.068 Y43.6 E0.32595
G1 X18.076 Y43.547 E0.00089
G1 X18.088 Y43.416 E0.00219
G1 X18.097 Y43.203 E0.00355
G0 F7200 X18.097 Y43.2
G1 F1800 X-1.562 Y43.2 E0.32693
G1 X-1.562 Y43.193 E0.00012
G1 X-1.562 Y42.8 E0.00654
G1 X18.097 Y42.8 E0.32693
G1 X18.097 Y42.4 E0.00665
G1 X-1.562 Y42.4 E0.32693
G1 X-1.562 Y42 E0.00665
G1 X18.097 Y42 E0.32693
G1 X18.097 Y41.6 E0.00665
G1 X-1.562 Y41.6 E0.32693
G1 X-1.562 Y41.2 E0.00665
G1 X18.097 Y41.2 E0.32693
G1 X18.097 Y40.8 E0.00665
G1 X-1.562 Y40.8 E0.32693
G1 X-1.562 Y40.4 E0.00665
G1 X18.097 Y40.4 E0.32693
G1 X18.097 Y40 E0.00665
G1 X-1.562 Y40 E0.32693
G1 X-1.562 Y39.6 E0.00665
G1 X18.097 Y39.6 E0.32693
G1 X18.097 Y39.2 E0.00665
G1 X-1.562 Y39.2 E0.32693
G1 X-1.562 Y38.8 E0.00665
G1 X18.097 Y38.8 E0.32693
G1 X18.097 Y38.4 E0.00665
G1 X-1.562 Y38.4 E0.32693
G1 X-1.562 Y38 E0.00665
G1 X18.097 Y38 E0.32693
G1 X18.097 Y37.6 E0.00665
G1 X-1.562 Y37.6 E0.32693
G1 X-1.562 Y37.2 E0.00665
G1 X18.097 Y37.2 E0.32693
G1 X18.097 Y36.8 E0.00665
G1 X-1.562 Y36.8 E0.32693
G1 X-1.562 Y36.4 E0.00665
G1 X18.097 Y36.4 E0.32693
G1 X18.097 Y36 E0.00665
G1 X-1.562 Y36 E0.32693
G1 X-1.562 Y35.6 E0.00665
G1 X18.097 Y35.6 E0.32693
G1 X18.097 Y35.2 E0.00665
G1 X-1.562 Y35.2 E0.32693
G1 X-1.562 Y34.8 E0.00665
G1 X18.097 Y34.8 E0.32693
G1 X18.097 Y34.4 E0.00665
G1 X-1.562 Y34.4 E0.32693
G1 X-1.562 Y34 E0.00665
G1 X18.097 Y34 E0.32693
G1 X18.097 Y33.6 E0.00665
G1 X-1.562 Y33.6 E0.32693
G1 X-1.562 Y33.2 E0.00665
G1 X18.097 Y33.2 E0.32693
G1 X18.097 Y32.8 E0.00665
G1 X-1.562 Y32.8 E0.32693
G1 X-1.562 Y32.4 E0.00665
G1 X18.097 Y32.4 E0.32693
G1 X18.097 Y32 E0.00665
G1 X-1.562 Y32 E0.32693
G1 X-1.562 Y31.6 E0.00665
G1 X18.097 Y31.6 E0.32693
G1 X18.097 Y31.2 E0.00665
G1 X-1.562 Y31.2 E0.32693
G1 X-1.562 Y30.8 E0.00665
G1 X18.097 Y30.8 E0.32693
G1 X18.097 Y30.4 E0.00665
G1 X-1.562 Y30.4 E0.32693
G1 X-1.562 Y30 E0.00665
G1 X18.097 Y30 E0.32693
G1 X18.098 Y29.6 E0.00665
G1 X-1.562 Y29.6 E0.32695
G1 X-1.562 Y29.2 E0.00665
G1 X18.098 Y29.2 E0.32695
G1 X18.098 Y28.8 E0.00665
G1 X-1.562 Y28.8 E0.32695
G1 X-1.562 Y28.4 E0.00665
G1 X18.098 Y28.4 E0.32695
G1 X18.098 Y28 E0.00665
G1 X-1.562 Y28 E0.32695
G1 X-1.562 Y27.6 E0.00665
G1 X18.098 Y27.6 E0.32695
G1 X18.098 Y27.2 E0.00665
G1 X-1.562 Y27.2 E0.32695
G1 X-1.562 Y26.8 E0.00665
G1 X18.098 Y26.8 E0.32695
G1 X18.098 Y26.4 E0.00665
G1 X-1.562 Y26.4 E0.32695
G1 X-1.562 Y26 E0.00665
G1 X18.098 Y26 E0.32695
G1 X18.098 Y25.6 E0.00665
G1 X-1.562 Y25.6 E0.32695
G1 X-1.562 Y25.2 E0.00665
G1 X18.098 Y25.2 E0.32695
G1 X18.098 Y24.8 E0.00665
G1 X-1.562 Y24.8 E0.32695
G1 X-1.562 Y24.4 E0.00665
