;FLAVOR:RepRap
;TIME:3156
;Filament used: 3.70581m
;Layer height: 0.2
;MINX:-36.3
;MINY:-13.956
;MINZ:0.3
;MAXX:33.374
;MAXY:13.956
;MAXZ:20.9
;Generated with Cura_SteamEngine 4.8.0
T0
M190 S80
M104 S230
M109 S230
M82 ;absolute extrusion mode
G28 ;Home
G1 Z15.0 F6000 ;Move the platform down 15mm
;Prime the extruder
G92 E0
G1 F200 E3
G92 E0
M83 ;relative extrusion mode
G1 F1500 E-6.5
;LAYER_COUNT:104
;LAYER:0
M107
G0 F3600 X-1.079 Y-8.234 Z0.3
;TYPE:SKIRT
G1 F1500 E6.5
G1 F1800 X-1.071 Y-8.249 E0.00085
G1 X-.62 Y-8.897 E0.03939
G1 X-.105 Y-9.496 E0.03941
G1 X0.467 Y-10.04 E0.03938
G1 X1.092 Y-10.524 E0.03944
G1 X1.762 Y-10.941 E0.03937
G1 X2.471 Y-11.289 E0.0394
G1 X3.211 Y-11.564 E0.03939
G1 X3.976 Y-11.762 E0.03942
G1 X4.756 Y-11.882 E0.03937
G1 X5.545 Y-11.922 E0.03941
G1 X6.333 Y-11.882 E0.03936
G1 X7.195 Y-11.746 E0.04354
G1 X7.533 Y-11.673 E0.01725
G1 X8.295 Y-11.468 E0.03937
G1 X8.827 Y-11.301 E0.02782
G1 X9.42 Y-11.114 E0.03102
G1 X9.952 Y-10.943 E0.02788
G1 X10.472 Y-10.782 E0.02716
G1 X10.846 Y-10.678 E0.01937
G1 X11.313 Y-10.97 E0.02748
G1 X12.01 Y-11.341 E0.03939
G1 X12.741 Y-11.64 E0.0394
G1 X13.46 Y-11.847 E0.03733
G1 X14.212 Y-12.079 E0.03926
G1 X14.627 Y-12.203 E0.02161
G1 X15.382 Y-12.433 E0.03938
G1 X16.157 Y-12.585 E0.0394
G1 X16.943 Y-12.659 E0.03939
G1 X17.224 Y-12.686 E0.01408
G1 X18.006 Y-12.791 E0.03936
G1 X18.643 Y-12.818 E0.03181
G1 X19.309 Y-12.819 E0.03323
G1 X19.365 Y-12.821 E0.0028
G1 X21.326 Y-12.822 E0.09783
G1 X22.115 Y-12.782 E0.03941
G1 X22.756 Y-12.691 E0.0323
G1 X22.953 Y-12.657 E0.00997
G1 X23.74 Y-12.594 E0.03939
G1 X24.517 Y-12.451 E0.03942
G1 X25.237 Y-12.241 E0.03742
G1 X26.126 Y-11.993 E0.04605
G1 X26.705 Y-11.813 E0.03025
G1 X27.225 Y-11.653 E0.02714
G1 X27.957 Y-11.356 E0.03941
G1 X28.647 Y-10.991 E0.03894
G1 X28.96 Y-10.805 E0.01816
G1 X29.617 Y-10.368 E0.03937
G1 X30.227 Y-9.867 E0.03938
G1 X30.802 Y-9.285 E0.04082
G1 X30.899 Y-9.176 E0.00728
G1 X31.393 Y-8.561 E0.03936
G1 X31.823 Y-7.898 E0.03942
G1 X32.183 Y-7.195 E0.0394
G1 X32.498 Y-6.377 E0.04373
G1 X32.64 Y-5.935 E0.02316
G1 X32.843 Y-5.172 E0.03939
G1 X32.968 Y-4.392 E0.03941
G1 X33.014 Y-3.604 E0.03938
G1 X33.017 Y-2.989 E0.03068
G1 X33.02 Y-2.394 E0.02969
G1 X33.017 Y-2.316 E0.00389
G1 X33.2 Y-1.63 E0.03542
G1 X33.327 Y-.851 E0.03938
G1 X33.374 Y-0.063 E0.03938
G1 X33.341 Y0.726 E0.0394
G1 X33.228 Y1.508 E0.03942
G1 X33.012 Y2.336 E0.04269
G1 X33.016 Y3.139 E0.04006
G1 X33.019 Y3.657 E0.02584
G1 X32.968 Y4.445 E0.0394
G1 X32.838 Y5.224 E0.0394
G1 X32.635 Y5.966 E0.03838
G1 X32.498 Y6.386 E0.02204
G1 X32.216 Y7.123 E0.03937
G1 X31.86 Y7.828 E0.0394
G1 X31.522 Y8.37 E0.03187
G1 X31.442 Y8.487 E0.00707
G1 X30.964 Y9.115 E0.03937
G1 X30.424 Y9.692 E0.03943
G1 X29.83 Y10.211 E0.03935
G1 X29.022 Y10.769 E0.04899
G1 X28.696 Y10.965 E0.01898
G1 X28 Y11.337 E0.03937
G1 X27.269 Y11.637 E0.03942
G1 X26.776 Y11.774 E0.02553
G1 X26.279 Y11.942 E0.02617
G1 X25.734 Y12.093 E0.02821
G1 X25.13 Y12.28 E0.03154
G1 X24.566 Y12.447 E0.02935
G1 X23.79 Y12.593 E0.03939
G1 X23.003 Y12.659 E0.0394
G1 X22.764 Y12.687 E0.01201
G1 X21.982 Y12.792 E0.03936
G1 X21.352 Y12.818 E0.03146
G1 X18.675 Y12.822 E0.13356
G1 X17.886 Y12.783 E0.03941
G1 X17.236 Y12.69 E0.03276
G1 X17.039 Y12.66 E0.00994
G1 X16.252 Y12.596 E0.03939
G1 X15.476 Y12.454 E0.03936
G1 X14.717 Y12.234 E0.03943
G1 X13.776 Y11.957 E0.04894
G1 X13.264 Y11.798 E0.02675
G1 X12.843 Y11.676 E0.02187
G1 X12.109 Y11.386 E0.03937
G1 X11.332 Y10.98 E0.04374
G1 X10.846 Y10.678 E0.02855
G1 X10.308 Y10.826 E0.02784
G1 X9.713 Y11.011 E0.03109
G1 X9.149 Y11.184 E0.02943
G1 X8.685 Y11.334 E0.02433
G1 X7.987 Y11.567 E0.03671
G1 X7.183 Y11.753 E0.04117
G1 X6.404 Y11.88 E0.03938
G1 X5.615 Y11.927 E0.03943
G1 X4.826 Y11.894 E0.0394
G1 X4.045 Y11.781 E0.03937
G1 X3.279 Y11.59 E0.03939
G1 X2.536 Y11.323 E0.03939
G1 X1.824 Y10.981 E0.03941
G1 X1.15 Y10.57 E0.03938
G1 X0.521 Y10.092 E0.03941
G1 X-0.057 Y9.554 E0.0394
G1 X-.577 Y8.959 E0.03942
G1 X-1.034 Y8.315 E0.0394
G1 X-1.077 Y8.24 E0.00431
G1 X-1.617 Y8.261 E0.02696
G1 X-4.499 Y8.261 E0.14378
G1 X-4.593 Y8.603 E0.0177
G1 X-4.878 Y9.34 E0.03942
G1 X-5.237 Y10.043 E0.03938
G1 X-5.664 Y10.707 E0.03939
G1 X-6.157 Y11.324 E0.0394
G1 X-6.71 Y11.889 E0.03944
G1 X-7.316 Y12.394 E0.03936
G1 X-7.971 Y12.835 E0.03939
G1 X-8.667 Y13.209 E0.03942
G1 X-9.397 Y13.509 E0.03938
G1 X-10.154 Y13.735 E0.03941
G1 X-10.93 Y13.882 E0.0394
G1 X-11.999 Y13.956 E0.05346
G1 X-28.383 Y13.956 E0.8174
G1 X-29.172 Y13.916 E0.03941
G1 X-29.952 Y13.797 E0.03936
G1 X-30.717 Y13.599 E0.03942
G1 X-31.457 Y13.325 E0.03937
G1 X-32.166 Y12.977 E0.0394
G1 X-32.837 Y12.559 E0.03944
G1 X-33.461 Y12.076 E0.03937
G1 X-33.898 Y11.671 E0.02973
G1 X-34.015 Y11.554 E0.00825
G1 X-34.545 Y10.968 E0.03942
G1 X-35.012 Y10.332 E0.03937
G1 X-35.413 Y9.652 E0.03938
G1 X-35.743 Y8.934 E0.03942
G1 X-35.998 Y8.187 E0.03938
G1 X-36.177 Y7.418 E0.03939
G1 X-36.277 Y6.634 E0.03943
G1 X-36.3 Y6.039 E0.02971
G1 X-36.3 Y1.117 E0.24556
G1 X-36.26 Y0.328 E0.03941
G1 X-36.21 Y0.002 E0.01645
G1 X-36.277 Y-.522 E0.02636
G1 X-36.3 Y-1.117 E0.02971
G1 X-36.3 Y-6.039 E0.24556
G1 X-36.26 Y-6.828 E0.03941
G1 X-36.141 Y-7.608 E0.03936
G1 X-35.943 Y-8.373 E0.03942
G1 X-35.669 Y-9.113 E0.03937
G1 X-35.321 Y-9.822 E0.0394
G1 X-34.903 Y-10.493 E0.03944
G1 X-34.42 Y-11.117 E0.03937
G1 X-34.015 Y-11.554 E0.02973
G1 X-33.898 Y-11.671 E0.00825
G1 X-33.312 Y-12.201 E0.03942
G1 X-32.676 Y-12.668 E0.03937
G1 X-31.996 Y-13.069 E0.03938
G1 X-31.278 Y-13.399 E0.03942
G1 X-30.531 Y-13.654 E0.03938
G1 X-29.762 Y-13.833 E0.03939
G1 X-28.978 Y-13.933 E0.03943
G1 X-28.383 Y-13.956 E0.02971
G1 X-11.998 Y-13.956 E0.81745
G1 X-11.209 Y-13.916 E0.03941
G1 X-10.429 Y-13.797 E0.03936
G1 X-9.664 Y-13.599 E0.03942
G1 X-8.924 Y-13.325 E0.03937
G1 X-8.215 Y-12.977 E0.0394
G1 X-7.544 Y-12.559 E0.03944
G1 X-6.92 Y-12.076 E0.03937
G1 X-6.347 Y-11.533 E0.03938
G1 X-5.832 Y-10.934 E0.03941
G1 X-5.381 Y-10.286 E0.03939
G1 X-4.997 Y-9.595 E0.03944
G1 X-4.685 Y-8.87 E0.03938
G1 X-4.493 Y-8.261 E0.03186
G1 X-1.617 Y-8.261 E0.14348
G1 X-1.079 Y-8.234 E0.02687
G0 F3600 X-.612 Y-8.222
G1 F1800 X-.153 Y-8.839 E0.03837
G1 X0.367 Y-9.406 E0.03838
G1 X0.944 Y-9.915 E0.03839
G1 X1.57 Y-10.362 E0.03838
G1 X2.239 Y-10.741 E0.03836
G1 X2.944 Y-11.049 E0.03838
G1 X3.677 Y-11.282 E0.03837
G1 X4.43 Y-11.437 E0.03835
G1 X5.195 Y-11.514 E0.03836
G1 X5.965 Y-11.51 E0.03842
G1 X6.729 Y-11.427 E0.03834
G1 X7.448 Y-11.282 E0.03659
G1 X8.191 Y-11.081 E0.0384
G1 X8.722 Y-10.914 E0.02777
G1 X9.308 Y-10.73 E0.03064
G1 X9.835 Y-10.56 E0.02763
G1 X10.355 Y-10.399 E0.02716
G1 X10.902 Y-10.234 E0.0285
G1 X11.518 Y-10.627 E0.03645
G1 X12.198 Y-10.987 E0.03839
G1 X12.911 Y-11.275 E0.03836
G1 X13.404 Y-11.416 E0.02558
G1 X13.992 Y-11.606 E0.03083
G1 X14.763 Y-11.825 E0.03999
G1 X14.8 Y-11.84 E0.00199
G1 X15.538 Y-12.059 E0.03841
G1 X16.294 Y-12.201 E0.03838
G1 X17.06 Y-12.263 E0.03834
G1 X17.297 Y-12.293 E0.01192
G1 X18.059 Y-12.394 E0.03835
G1 X18.643 Y-12.418 E0.02916
G1 X19.309 Y-12.419 E0.03323
G1 X19.365 Y-12.421 E0.0028
G1 X21.326 Y-12.422 E0.09783
G1 X22.094 Y-12.382 E0.03837
G1 X22.683 Y-12.297 E0.02969
G1 X22.961 Y-12.257 E0.01401
G1 X23.727 Y-12.192 E0.03835
G1 X24.483 Y-12.048 E0.0384
G1 X25.046 Y-11.878 E0.02934
G1 X25.595 Y-11.722 E0.02847
G1 X26.149 Y-11.556 E0.02885
G1 X26.663 Y-11.4 E0.0268
G1 X27.112 Y-11.269 E0.02333
G1 X27.824 Y-10.976 E0.03841
G1 X28.442 Y-10.648 E0.03491
G1 X28.755 Y-10.462 E0.01816
G1 X29.395 Y-10.035 E0.03838
G1 X29.987 Y-9.544 E0.03837
G1 X30.503 Y-9.019 E0.03673
G1 X30.6 Y-8.91 E0.00728
G1 X31.081 Y-8.31 E0.03837
G1 X31.497 Y-7.663 E0.03838
G1 X31.843 Y-6.976 E0.03838
G1 X32.117 Y-6.254 E0.03853
G1 X32.259 Y-5.812 E0.02316
G1 X32.456 Y-5.069 E0.03835
G1 X32.575 Y-4.309 E0.03838
G1 X32.614 Y-3.541 E0.03837
G1 X32.617 Y-2.926 E0.03068
G1 X32.62 Y-2.33 E0.02973
G1 X32.617 Y-2.264 E0.0033
G1 X32.814 Y-1.527 E0.03806
G1 X32.934 Y-.767 E0.03839
G1 X32.974 Y0.001 E0.03837
G1 X32.935 Y0.769 E0.03837
G1 X32.816 Y1.529 E0.03838
G1 X32.609 Y2.297 E0.03968
G1 X32.604 Y2.643 E0.01726
G1 X32.616 Y3.169 E0.02625
G1 X32.619 Y3.691 E0.02604
G1 X32.564 Y4.459 E0.03841
G1 X32.429 Y5.216 E0.03836
G1 X32.255 Y5.842 E0.03242
G1 X32.118 Y6.262 E0.02204
G1 X31.842 Y6.98 E0.03838
G1 X31.493 Y7.665 E0.03835
G1 X31.192 Y8.144 E0.02822
G1 X31.112 Y8.261 E0.00707
G1 X30.645 Y8.872 E0.03837
G1 X30.118 Y9.432 E0.03836
G1 X29.535 Y9.934 E0.03838
G1 X28.816 Y10.426 E0.04347
G1 X28.49 Y10.622 E0.01898
G1 X27.811 Y10.984 E0.03839
G1 X27.098 Y11.273 E0.03838
G1 X26.642 Y11.399 E0.0236
G1 X26.113 Y11.574 E0.0278
G1 X25.995 Y11.603 E0.00606
G1 X25.341 Y11.792 E0.03396
G1 X25.153 Y11.859 E0.00996
G1 X24.414 Y12.072 E0.03837
G1 X23.657 Y12.207 E0.03836
G1 X22.89 Y12.262 E0.03836
G1 X22.691 Y12.294 E0.01006
G1 X21.929 Y12.395 E0.03835
G1 X21.351 Y12.418 E0.02886
G1 X18.674 Y12.422 E0.13356
G1 X17.906 Y12.383 E0.03837
G1 X17.309 Y12.297 E0.03009
G1 X17.031 Y12.259 E0.014
G1 X16.265 Y12.195 E0.03835
G1 X15.509 Y12.051 E0.0384
G1 X14.822 Y11.844 E0.0358
G1 X14.37 Y11.711 E0.02351
G1 X13.886 Y11.572 E0.02512
G1 X13.376 Y11.413 E0.02665
G1 X12.952 Y11.291 E0.02201
G1 X12.238 Y11.006 E0.03835
G1 X11.537 Y10.636 E0.03955
G1 X10.898 Y10.23 E0.03777
G1 X10.238 Y10.431 E0.03442
G1 X9.188 Y10.757 E0.05485
G1 X8.979 Y10.821 E0.0109
G1 X8.553 Y10.959 E0.02234
G1 X7.453 Y11.286 E0.05725
G1 X7.099 Y11.362 E0.01806
G1 X6.34 Y11.484 E0.03835
G1 X5.572 Y11.527 E0.03838
G1 X4.804 Y11.49 E0.03836
G1 X4.043 Y11.373 E0.03841
G1 X3.299 Y11.178 E0.03837
G1 X2.58 Y10.906 E0.03835
G1 X1.892 Y10.562 E0.03838
G1 X1.244 Y10.148 E0.03836
G1 X0.642 Y9.669 E0.03838
G1 X0.093 Y9.13 E0.03838
G1 X-.396 Y8.537 E0.03835
G1 X-.822 Y7.896 E0.0384
G1 X-.865 Y7.813 E0.00466
G1 X-1.617 Y7.861 E0.03759
G1 X-4.803 Y7.861 E0.15895
G1 X-4.82 Y7.95 E0.00452
G1 X-5.045 Y8.686 E0.0384
G1 X-5.345 Y9.394 E0.03836
G1 X-5.717 Y10.067 E0.03836
G1 X-6.157 Y10.698 E0.03838
G1 X-6.66 Y11.28 E0.03838
G1 X-7.221 Y11.806 E0.03837
G1 X-7.833 Y12.272 E0.03838
G1 X-8.49 Y12.671 E0.03835
G1 X-9.185 Y13 E0.03836
G1 X-9.911 Y13.255 E0.03839
G1 X-10.659 Y13.434 E0.03837
G1 X-11.422 Y13.533 E0.03839
G1 X-11.999 Y13.556 E0.02881
G1 X-28.383 Y13.556 E0.8174
G1 X-29.151 Y13.516 E0.03837
G1 X-29.911 Y13.397 E0.03838
G1 X-30.654 Y13.199 E0.03836
G1 X-31.373 Y12.925 E0.03839
G1 X-32.059 Y12.578 E0.03835
G1 X-32.706 Y12.162 E0.03838
G1 X-33.306 Y11.681 E0.03837
G1 X-33.733 Y11.272 E0.0295
G1 X-34.247 Y10.7 E0.03837
G1 X-34.7 Y10.078 E0.03839
G1 X-35.086 Y9.413 E0.03836
G1 X-35.401 Y8.711 E0.03839
G1 X-35.641 Y7.98 E0.03839
G1 X-35.804 Y7.229 E0.03834
G1 X-35.888 Y6.464 E0.0384
G1 X-35.9 Y6.039 E0.02121
G1 X-35.9 Y1.117 E0.24556
G1 X-35.86 Y0.349 E0.03837
G1 X-35.809 Y0.025 E0.01636
G1 X-35.888 Y-.692 E0.03599
G1 X-35.9 Y-1.117 E0.02121
G1 X-35.9 Y-6.039 E0.24556
G1 X-35.86 Y-6.807 E0.03837
G1 X-35.741 Y-7.567 E0.03838
G1 X-35.543 Y-8.31 E0.03836
G1 X-35.269 Y-9.029 E0.03839
G1 X-34.922 Y-9.715 E0.03835
G1 X-34.506 Y-10.362 E0.03838
G1 X-34.025 Y-10.962 E0.03837
G1 X-33.616 Y-11.389 E0.0295
G1 X-33.044 Y-11.903 E0.03837
G1 X-32.422 Y-12.356 E0.03839
G1 X-31.757 Y-12.742 E0.03836
G1 X-31.055 Y-13.057 E0.03839
G1 X-30.324 Y-13.297 E0.03839
G1 X-29.573 Y-13.46 E0.03834
G1 X-28.808 Y-13.544 E0.0384
G1 X-28.383 Y-13.556 E0.02121
G1 X-11.998 Y-13.556 E0.81745
G1 X-11.23 Y-13.516 E0.03837
G1 X-10.47 Y-13.397 E0.03838
G1 X-9.727 Y-13.199 E0.03836
G1 X-9.008 Y-12.925 E0.03839
G1 X-8.322 Y-12.578 E0.03835
G1 X-7.675 Y-12.162 E0.03838
G1 X-7.075 Y-11.681 E0.03837
G1 X-6.528 Y-11.14 E0.03838
G1 X-6.04 Y-10.545 E0.03839
G1 X-5.617 Y-9.903 E0.03836
G1 X-5.262 Y-9.22 E0.0384
G1 X-4.981 Y-8.505 E0.03833
G1 X-4.802 Y-7.861 E0.03335
G1 X-1.617 Y-7.861 E0.1589
G1 X-.85 Y-7.821 E0.03832
G1 X-.612 Y-8.222 E0.02326
G0 F3600 X-.87 Y-7.421
G1 F1800 X-.637 Y-7.383 E0.01178
G1 X-.552 Y-7.555 E0.00957
G1 X-.151 Y-8.186 E0.0373
G1 X0.315 Y-8.771 E0.03731
G1 X0.841 Y-9.303 E0.03732
G1 X1.421 Y-9.776 E0.03734
G1 X2.048 Y-10.184 E0.03732
G1 X2.715 Y-10.523 E0.03733
G1 X3.414 Y-10.789 E0.03731
G1 X4.138 Y-10.978 E0.03733
G1 X4.877 Y-11.09 E0.03729
G1 X5.625 Y-11.122 E0.03735
G1 X6.371 Y-11.073 E0.0373
G1 X7.026 Y-10.964 E0.03313
G1 X7.364 Y-10.891 E0.01725
G1 X8.085 Y-10.694 E0.03729
G1 X8.617 Y-10.528 E0.0278
G1 X9.195 Y-10.345 E0.03025
G1 X9.719 Y-10.177 E0.02745
G1 X10.238 Y-10.017 E0.0271
G1 X10.717 Y-9.872 E0.02497
G1 X10.966 Y-9.798 E0.01296
G1 X11.424 Y-10.105 E0.02751
G1 X11.723 Y-10.284 E0.01739
G1 X12.385 Y-10.633 E0.03734
G1 X13.08 Y-10.91 E0.03733
G1 X13.432 Y-11.009 E0.01824
G1 X14.004 Y-11.181 E0.0298
G1 X14.514 Y-11.335 E0.02658
G1 X14.973 Y-11.477 E0.02397
G1 X15.691 Y-11.685 E0.03729
G1 X16.428 Y-11.815 E0.03734
G1 X17.186 Y-11.865 E0.0379
G1 X17.37 Y-11.899 E0.00934
G1 X18.112 Y-11.997 E0.03734
G1 X18.644 Y-12.018 E0.02656
G1 X19.309 Y-12.019 E0.03318
G1 X19.365 Y-12.021 E0.0028
G1 X21.326 Y-12.022 E0.09783
G1 X22.073 Y-11.982 E0.03732
G1 X22.61 Y-11.904 E0.02707
G1 X22.968 Y-11.857 E0.01801
G1 X23.713 Y-11.79 E0.03732
G1 X24.447 Y-11.644 E0.03734
G1 X24.876 Y-11.51 E0.02242
G1 X25.409 Y-11.367 E0.02753
G1 X25.914 Y-11.22 E0.02624
G1 X26.484 Y-11.043 E0.02978
G1 X26.999 Y-10.884 E0.02689
G1 X27.69 Y-10.597 E0.03733
G1 X28.238 Y-10.304 E0.031
G1 X28.551 Y-10.118 E0.01816
G1 X29.173 Y-9.702 E0.03733
G1 X29.747 Y-9.222 E0.03733
G1 X30.204 Y-8.754 E0.03263
G1 X30.301 Y-8.645 E0.00728
G1 X30.768 Y-8.06 E0.03734
G1 X31.17 Y-7.429 E0.03733
G1 X31.502 Y-6.759 E0.03731
G1 X31.737 Y-6.132 E0.03341
G1 X31.879 Y-5.69 E0.02316
G1 X32.069 Y-4.967 E0.0373
G1 X32.181 Y-4.227 E0.03734
G1 X32.214 Y-3.48 E0.0373
G1 X32.217 Y-2.866 E0.03063
G1 X32.22 Y-2.269 E0.02978
G1 X32.235 Y-2.147 E0.00613
G1 X32.426 Y-1.424 E0.03731
G1 X32.54 Y-.685 E0.0373
G1 X32.574 Y0.063 E0.03736
G1 X32.528 Y0.809 E0.03729
G1 X32.402 Y1.547 E0.03735
G1 X32.224 Y2.192 E0.03338
G1 X32.205 Y2.642 E0.02247
G1 X32.214 Y3.197 E0.02769
G1 X32.218 Y3.725 E0.02634
G1 X32.159 Y4.47 E0.03728
G1 X32.021 Y5.206 E0.03736
G1 X31.875 Y5.718 E0.02656
G1 X31.738 Y6.138 E0.02204
G1 X31.468 Y6.836 E0.03734
G1 X31.126 Y7.501 E0.03731
G1 X30.781 Y8.035 E0.03172
G1 X30.327 Y8.629 E0.0373
G1 X29.811 Y9.171 E0.03734
G1 X29.241 Y9.655 E0.03731
G1 X28.61 Y10.083 E0.03804
G1 X28.284 Y10.279 E0.01898
G1 X27.623 Y10.63 E0.03734
G1 X26.929 Y10.908 E0.0373
G1 X26.377 Y11.058 E0.02854
G1 X25.976 Y11.195 E0.02114
G1 X25.252 Y11.402 E0.03757
G1 X24.984 Y11.494 E0.01414
G1 X24.263 Y11.696 E0.03736
G1 X23.526 Y11.82 E0.03729
G1 X22.827 Y11.861 E0.03493
G1 X22.618 Y11.9 E0.01061
G1 X21.877 Y11.997 E0.03728
G1 X21.35 Y12.018 E0.02631
G1 X18.673 Y12.022 E0.13356
G1 X17.926 Y11.983 E0.03732
G1 X17.382 Y11.904 E0.02742
G1 X17.024 Y11.859 E0.018
G1 X16.278 Y11.793 E0.03736
G1 X15.545 Y11.647 E0.03729
G1 X15.007 Y11.48 E0.0281
G1 X14.484 Y11.328 E0.02717
G1 X13.997 Y11.187 E0.02529
G1 X13.488 Y11.029 E0.02659
G1 X13.061 Y10.905 E0.02218
G1 X12.368 Y10.625 E0.03729
G1 X11.743 Y10.293 E0.03531
G1 X11.425 Y10.103 E0.01848
G1 X10.964 Y9.794 E0.02769
G1 X10.174 Y10.036 E0.04122
G1 X9.371 Y10.282 E0.0419
G1 X9.331 Y10.3 E0.00219
G1 X8.815 Y10.455 E0.02688
G1 X8.372 Y10.6 E0.02326
G1 X7.369 Y10.895 E0.05216
G1 X7.015 Y10.971 E0.01806
G1 X6.277 Y11.089 E0.03729
G1 X5.53 Y11.127 E0.03732
G1 X4.783 Y11.085 E0.03733
G1 X4.044 Y10.964 E0.03736
G1 X3.323 Y10.765 E0.03732
G1 X2.628 Y10.49 E0.03729
G1 X1.965 Y10.142 E0.03736
G1 X1.344 Y9.725 E0.03732
G1 X0.771 Y9.245 E0.03729
G1 X0.252 Y8.706 E0.03733
G1 X-.207 Y8.115 E0.03733
G1 X-.6 Y7.478 E0.03734
G1 X-.642 Y7.391 E0.00482
G1 X-1.617 Y7.461 E0.04877
G1 X-5.128 Y7.461 E0.17516
G1 X-5.26 Y8.051 E0.03016
G1 X-5.501 Y8.76 E0.03736
G1 X-5.816 Y9.438 E0.0373
G1 X-6.202 Y10.079 E0.03733
G1 X-6.653 Y10.675 E0.03729
G1 X-7.166 Y11.22 E0.03734
G1 X-7.734 Y11.707 E0.03733
G1 X-8.351 Y12.13 E0.03732
G1 X-9.009 Y12.485 E0.0373
G1 X-9.702 Y12.768 E0.03735
G1 X-10.421 Y12.976 E0.03734
G1 X-11.157 Y13.105 E0.03728
G1 X-11.999 Y13.156 E0.04208
G1 X-28.383 Y13.156 E0.8174
G1 X-29.13 Y13.116 E0.03732
G1 X-29.868 Y12.997 E0.03729
G1 X-30.59 Y12.799 E0.03735
G1 X-31.286 Y12.526 E0.0373
G1 X-31.949 Y12.179 E0.03733
